svgs/duotone/display-medical.svg

<svg xmlns="http://www.w3.org/2000/svg" viewBox="0 0 576 512"><!-- Font Awesome Pro 6.0.0-alpha2 by @fontawesome - https://fontawesome.com License - https://fontawesome.com/license (Commercial License) --><defs><style>.fa-secondary{opacity:.4}</style></defs><path d="M528 0H48C21.5 0 0 21.5 0 48V368C0 394.5 21.5 416 48 416H528C554.5 416 576 394.5 576 368V48C576 21.5 554.5 0 528 0ZM512 352H64V64H512V352Z" class="fa-secondary"/><path d="M424 464H352L336 416H240L224 464H152C138.75 464 128 474.75 128 488S138.75 512 152 512H424C437.25 512 448 501.25 448 488S437.25 464 424 464ZM64 64V352H512V64H64ZM384 224C384 232.799 376.801 240 368 240H320V288C320 296.799 312.801 304 304 304H272C263.199 304 256 296.799 256 288V240H208C199.199 240 192 232.799 192 224V192C192 183.199 199.199 176 208 176H256V128C256 119.199 263.199 112 272 112H304C312.801 112 320 119.199 320 128V176H368C376.801 176 384 183.199 384 192V224Z" class="fa-primary"/></svg>

<svg xmlns="http://www.w3.org/2000/svg" viewBox="0 0 576 512"><!--! Font Awesome Pro 6.3.0 by @fontawesome - https://fontawesome.com License - https://fontawesome.com/license (Commercial License) Copyright 2023 Fonticons, Inc. --><defs><style>.fa-secondary{opacity:.4}</style></defs><path class="fa-primary" d="M424 464H352L336 416h-96L224 464H152C138.8 464 128 474.8 128 488S138.8 512 152 512h272c13.25 0 24-10.75 24-24S437.3 464 424 464zM64 64v288h448V64H64zM384 224c0 8.799-7.199 15.1-16 15.1H320v48C320 296.8 312.8 304 304 304h-32C263.2 304 256 296.8 256 287.1v-48H208C199.2 239.1 192 232.8 192 224V191.1C192 183.2 199.2 176 208 176H256V128c0-8.801 7.199-16 16-16h32C312.8 112 320 119.2 320 128v48h48c8.801 0 16 7.198 16 15.1V224z"/><path class="fa-secondary" d="M528 0h-480C21.5 0 0 21.5 0 48v320C0 394.5 21.5 416 48 416h480c26.5 0 48-21.5 48-48v-320C576 21.5 554.5 0 528 0zM512 352H64V64h448V352z"/></svg>
